Numix-GalliumOS/24/emblems/emblem-camera.svg

<?xml version="1.0" encoding="UTF-8" standalone="no"?>
<svg
   xmlns:dc="http://purl.org/dc/elements/1.1/"
   xmlns:cc="http://creativecommons.org/ns#"
   xmlns:rdf="http://www.w3.org/1999/02/22-rdf-syntax-ns#"
   xmlns:svg="http://www.w3.org/2000/svg"
   xmlns="http://www.w3.org/2000/svg"
   xmlns:sodipodi="http://sodipodi.sourceforge.net/DTD/sodipodi-0.dtd"
   xmlns:inkscape="http://www.inkscape.org/namespaces/inkscape"
   width="24"
   height="24"
   viewBox="0 0 24 24"
   id="svg2"
   version="1.1"
   inkscape:version="0.91 r13725"
   sodipodi:docname="emblem-camera.svg">
  <metadata
     id="metadata22">
    <rdf:RDF>
      <cc:Work
         rdf:about="">
        <dc:format>image/svg+xml</dc:format>
        <dc:type
           rdf:resource="http://purl.org/dc/dcmitype/StillImage" />
      </cc:Work>
    </rdf:RDF>
  </metadata>
  <defs
     id="defs20" />
  <sodipodi:namedview
     pagecolor="#ffffff"
     bordercolor="#666666"
     borderopacity="1"
     objecttolerance="10"
     gridtolerance="10"
     guidetolerance="10"
     inkscape:pageopacity="0"
     inkscape:pageshadow="2"
     inkscape:window-width="1366"
     inkscape:window-height="704"
     id="namedview18"
     showgrid="false"
     inkscape:object-nodes="true"
     inkscape:zoom="1"
     inkscape:cx="8.5372126"
     inkscape:cy="12"
     inkscape:window-x="0"
     inkscape:window-y="27"
     inkscape:window-maximized="1"
     inkscape:current-layer="svg2">
    <inkscape:grid
       type="xygrid"
       id="grid4150" />
  </sodipodi:namedview>
  <path
     style="fill:#fff;stroke:#777;stroke-width:.5"
     d="M 25.930511 35.186401 C 25.930511 42.095309 20.446393 47.69322 13.677926 47.69322 C 6.90946 47.69322 1.425342 42.095309 1.425342 35.186401 C 1.425342 28.277492 6.90946 22.679581 13.677926 22.679581 C 20.446393 22.679581 25.930511 28.277492 25.930511 35.186401 Z "
     transform="matrix(.7999 0 0 .78363 1.05909 -15.57329)"
     id="path4" />
  <g
     style="fill:#427fec"
     id="g6"
     transform="matrix(1,0,0,1.0000115,0,-0.39863782)">
    <path
       d="M 5.6835938 7 C 5.3046877 7 5 7.3281203 5 7.734375 L 5 16.269531 C 5 16.671879 5.3046877 17 5.6835938 17 L 18.316406 17 C 18.695312 17 19 16.671879 19 16.269531 L 19 7.734375 C 19 7.3281203 18.695312 7 18.316406 7 L 5.6835938 7 z M 16.699219 8 L 17.300781 8 C 17.688581 8 18 8.3114187 18 8.6992188 L 18 9.3007812 C 18 9.6885813 17.688581 10 17.300781 10 L 16.699219 10 C 16.311419 10 16 9.6885813 16 9.3007812 L 16 8.6992188 C 16 8.3114187 16.311419 8 16.699219 8 z M 12 9 A 3 3 0 0 1 15 12 A 3 3 0 0 1 12 15 A 3 3 0 0 1 9 12 A 3 3 0 0 1 12 9 z "
       transform="matrix(1,0,0,0.9999885,0,0.39863324)"
       id="path8" />
    <path
       d="m 6.851562,6.3985527 1.996094,0 c 0.277344,0 0.5,0.222657 0.5,0.5 0,0.277344 -0.222656,0.5 -0.5,0.5 l -1.996094,0 c -0.277343,0 -0.503906,-0.222656 -0.503906,-0.5 0,-0.277343 0.226563,-0.5 0.503906,-0.5 z"
       id="path10"
       inkscape:connector-curvature="0" />
  </g>
</svg>

<svg xmlns="http://www.w3.org/2000/svg" viewBox="0 0 24 24">
 <path d="m 25.931 35.19 c 0 6.909 -5.484 12.507 -12.253 12.507 c -6.768 0 -12.253 -5.598 -12.253 -12.507 c 0 -6.909 5.484 -12.507 12.253 -12.507 c 6.768 0 12.253 5.598 12.253 12.507 Z" transform="matrix(.7999 0 0 .78363 1.05909 -15.57329)" style="fill:#fff;stroke:#777;stroke-width:0.5"/>
 <g transform="matrix(1,0,0,1.0000115,0,-0.39863782)" style="fill:#427fec">
  <path d="m 5.684 7 c -0.379 0 -0.684 0.328 -0.684 0.734 l 0 8.535 c 0 0.402 0.305 0.73 0.684 0.73 l 12.633 0 c 0.379 0 0.684 -0.328 0.684 -0.73 l 0 -8.535 c 0 -0.406 -0.305 -0.734 -0.684 -0.734 l -12.633 0 z m 11.02 1 l 0.602 0 c 0.388 0 0.699 0.311 0.699 0.699 l 0 0.602 c 0 0.388 -0.311 0.699 -0.699 0.699 l -0.602 0 c -0.388 0 -0.699 -0.311 -0.699 -0.699 l 0 -0.602 c 0 -0.388 0.311 -0.699 0.699 -0.699 z m -4.699 1 a 3 3 0 0 1 3 3 a 3 3 0 0 1 -3 3 a 3 3 0 0 1 -3 -3 a 3 3 0 0 1 3 -3 z" transform="matrix(1,0,0,0.9999885,0,0.39863324)"/>
  <path d="m 6.852 6.399 1.996 0 c 0.277 0 0.5 0.223 0.5 0.5 0 0.277 -0.223 0.5 -0.5 0.5 l -1.996 0 c -0.277 0 -0.504 -0.223 -0.504 -0.5 0 -0.277 0.227 -0.5 0.504 -0.5 z"/>
 </g>
</svg>
